X:1
T:Title
%%score { 1 | 2 }
L:1/8
M:6/8
K:Db
V:1 treble nm="Grand Piano"
V:2 bass 
V:1
 z3 z2[Q:1/4=84] [A,FA] | [A,FA]>[A,EG][A,DF] [A,DF][DFA][DAd] | [DAc]>BB B2 B | [FA][FA]F F>GA | %4
 E3- E2 A | [FA]>[EG][DF] [DF][FA][Ad] | [Ac]>BB B2 B | A>Ad cBA |[M:5/8] [Fd]-[Fd]- [Fd]3 | %9
[M:1/8] A |[M:3/4] A>c e e2 f |[M:5/8] [Fe][Fd]>[GB] [FA]2 |[M:1/8] [FA] | %13
[M:3/4] d>c d>[Ac] [Ac]>[DEB] | [CEA]4- [CEA][CGA] | [A,FA]>[A,EG] [A,DF][A,DF] [DFA][DAd] | %16
 [DAc]>B B B2 B | A<.A dc BA |[M:5/8] [Fd]-[Fd]- [Fd]3 |] %19
V:2
 z3 z2 D, | D,>D,D, D,D,F, | G,>[G,DG][G,DG] [G,DG]2 [G,DG] | %3
 [D,D][D,D][D,A,D] [D,A,D]>[E,A,C][F,A,D] | [A,C]3- [A,C]2 [A,G] | %5
 [D,A,]>[D,A,][D,A,] [D,A,][D,D][F,D] | [G,D]>[K:treble][G,DG][G,DG] [G,DG]2 [G,DG] | %7
 [A,DF]>[A,DF][A,F] [A,G][A,G][A,G] |[M:5/8][K:bass] [D,A,]-[D,A,]- [D,A,]3 | %9
[M:1/8][K:treble] [A,CG] |[M:3/4] [A,CG]>[A,G] [A,CG] [A,CG]2 [A,CA] | %11
[M:5/8][K:bass] [D,D][D,D]>[D,D] [D,D]2 |[M:1/8] [D,D] | %13
[M:3/4][K:treble] [B,DF]>[B,DF] [B,DF]>[K:bass][E,E] [E,E]>E, | A,4- A,A,, | D,>D, D,D, D,F, | %16
 G,>[K:treble][G,DG] [G,DG] [G,DG]2 [G,DG] | [A,DF]<.[A,DF] [A,F][A,G] [A,G][A,G] | %18
[M:5/8][K:bass] [D,A,]-[D,A,]- [D,A,]3 |] %19

